X:1
T:Title
%%score { ( 1 4 ) | ( 2 3 ) }
L:1/8
M:3/4
K:Ab
V:1 treble nm="Grand Piano"
V:4 treble 
V:2 bass 
V:3 bass 
V:1
 z2 z2[Q:1/4=100] [CE]2 | [Ec][CA] [CE]2 [Ec]2 | [FA][DF] [FA]2 [DF]2 | [CE]3 [EA] [EB][Ec] | %4
 c2 B2 E2 | [Ec][CA] [CE]2 [Ec]2 | [A,FA][A,DF] [DFA]2 [A,DF]2 | [A,CE][CEA] [DGB]2 .[DGc]2 | %8
[M:2/4] [CEA]4 |[M:1/4] c2 |[M:3/4] [Fd][DF] [FA]2 [Fd]2 | [Ec][CA] [Ec]2 [Ec]2 | e3 c BA | %13
[M:7/8] c2 z z z z2 |[M:3/4] [Ec][CA] [CE]2 [Ec]2 | [FA][DF] [FA]2 F2 |[M:7/8] z z z2 c3 | %17
[M:2/4] [CA]4 |] %18
V:2
 z2 z2 [A,,A,]2 | [A,,A,][A,,E,] [A,,A,]2 [A,,A,]2 | [D,A,][D,A,] [D,A,]2 [D,A,]2 | %3
 [A,,A,]3 [C,A,] [B,,G,][A,,A,] | [E,A,E]2 [E,G,E]2 [E,G,]2 | [A,,A,][A,,E,] [A,,A,]2 [A,,A,]2 | %6
 D,D, D,2 D,2 | E,E, E,2 z E |[M:2/4] A,,4 |[M:1/4] [A,,A,]2 |[M:3/4] [D,A,][D,A,] [D,D]2 [D,A,]2 | %11
 [A,,A,][A,,A,] [A,,A,]2 [A,,A,]2 | [A,,CE]3[K:treble] [A,EA] [G,B,E][K:bass][F,B,=D] | %13
[M:7/8] [A,E]C E,3 E,2 |[M:3/4] [A,,A,][A,,E,] [A,,A,]2 [A,,A,]2 | [D,A,][D,A,] [D,D]2 [D,A,D]2 | %16
[M:7/8] [E,A,C][E,CE] [E,DE]2 E z2 |[M:2/4] [A,,A,]4 |] %18
V:3
 x6 | x6 | x6 | x6 | x6 | x6 | x6 | z2 z2 E,2 |[M:2/4] x4 |[M:1/4] x2 |[M:3/4] x6 | x6 | %12
 x3[K:treble] x2[K:bass] x |[M:7/8] E,2 z z z z2 |[M:3/4] x6 | x6 |[M:7/8] z z z2 [E,G,]3 | %17
[M:2/4] x4 |] %18
V:4
 x6 | x6 | x6 | x6 | x6 | x6 | x6 | x6 |[M:2/4] x4 |[M:1/4] E_G |[M:3/4] x6 | x6 | x6 | %13
[M:7/8] z A [EGB]3 [G,E]2 |[M:3/4] x6 | x6 |[M:7/8] EA B2 z D2 |[M:2/4] x4 |] %18

